X:1
T:Panis Angelicus
T:Camille Saint-Saens (1835-1921)
T:Panis Angelicus
C:Camille Saint-Saens
C:(1835-1921)
%%score [ ( 1 2 ) ( 3 4 ) ] { ( 5 8 ) | ( 6 7 ) }
L:1/8
M:3/4
K:Db
V:1 treble nm="S A" snm="S A"
V:2 treble 
V:3 bass nm="T B" snm="T B"
V:4 bass 
V:5 treble nm="Org" snm="Org."
V:8 treble 
V:6 bass 
V:7 bass 
V:1
"^Moderately, not too slow" z6 | z6 | A2 B2 d2 | c3 A A2 | B2 G2 A2 | G3 G F2 | B2 F2 =G2 | %7
w: |||||||
w: |||||||
 A3 A A2 | A2 B2 c2 | B3 B A2 | z6 | c4 A2 | z2 z2 A2 | G3 G F2 | z2 z2 =G2 | (A2 d2) c2 | %16
w: |||||||fit|pa- * nis|
w: |||||||||
 (c2 B2) A2 | E6 | A2 e2 d2 | d3 _c c2 | A2 d2 _c2 | _c3 B B2 | B4 G2 | B4 G2 | B2 A3 B | B6 | z6 | %27
w: ho- * mi-|num.||||||||||
w: ||O res mi-|ra- bi- lis!|man- du- cat|Do- mi- num|Pau- per,|ser- vus,|et hu- mi-|lis.||
 z6 | z6 | z6 | A2 B2 d2 | c3 A A2 | B2 G2 A2 | G3 G F2 | B2 F2 =G2 | A3 A A2 | A2 B2 c2 | %37
w: ||||||||||
w: |||Te- tri- na|De- i- tas|u- na- que|pos- ci- mus,|sic nos tu|vi- si- tas,|si- cut te|
 B3 B A2 | z6 | z6 | A2 d2 _c2 | _c3 A B2 | z6 | z6 | B2 e2 d2 | d3 B c2 | d2 A2 B2 | c2 G2 A2 | %48
w: |||||||duc nos quo|ten- di- mus,|ad lu- cem|quam * in-|
w: co- li- mus.|||Per tu- as|se- mi- tas|||duc nos quo|ten- * di-|mus, * *|ad * *|
 B4 B2 | A4 z2 | d2 A2 B2 | c2 G2 A2 | B4 B2 | c4 z2 | (c2 f4 | e2 d2 B2) | B6 | A2 z2 z2 | %58
w: ha- bi-|tas.|Ad lu- cem|quam * in-|ha- bi-|tas.|||||
w: lu- cem|quam|in- * *|ha- * *|bi- *|tas.|Ad *||lu-|cem|
 (A2 B2) G2 | F4 E2 | D4 z2 | z6 | z6 | A2 B2 d2 | c3 A A2 | z6 | z6 | B2 G2 A2 | G3 G F2 | z6 | %70
w: |||||Pa- nis an-|ge- li- cus|||fit pa- nis|ho- mi- num.||
w: quam * in-|ha- bi-|tas.||||||||||
 A6- | A6 | A6- | A2 z2 z2 | z6 |] %75
w: |||||
w: A-||men.|||
V:2
 x6 | x6 | F2 G2 A2 | A2 E2 D2 | F2 E2 E2 | D2 E2 D2 | F2 F2 F2 | F2 F2 F2 | F2 F2 F2 | %9
w: |||||||||
w: ||Pa- nis an-|ge- li- cus|fit pa- nis|ho- mi- num;|dat pa- nis|cae- li- cus|fi- gu- ris|
 D2 (ED) C2 | x6 | (A2 E2) D2 | x4 E2 | D2 E2 D2 | F6 | F4 F2 | F4 F2 | (D4 C2) | A2 B2 A2 | %19
w: ||||||||||
w: ter- mi- * num.||Pa- * nis|an-|ge- li- cus|fit|pa- nis|ho- mi-|num. *||
 G3 G G2 | F2 A2 E2 | =D3 D D2 | (_D2 =D2) E2 | (_D2 =D2) E2 | _D2 E2 E2 | =D6 | x6 | x6 | x6 | %29
w: ||||||||||
w: ||||||||||
 x6 | F2 G2 A2 | A2 E2 D2 | F2 E2 E2 | D2 E2 D2 | F2 F2 F2 | F2 F2 F2 | F2 F2 F2 | D2 (ED) C2 | %38
w: |||||||||
w: |||||||||
 x6 | x6 | F2 F2 E2 | E3 E =D2 | x6 | x6 | G2 G2 F2 | (=E2 F2) _E2 | D4 z2 | G6 | F2 (D2 E2) | C6 | %50
w: ||||||||||||
w: ||||||||||||
 D6 | G6 | (F2 D2 E2) | E4 x2 | (=A6 | E6) | G6 | F2 x4 | F4 D2 | D4 C2 | D4 x2 | x6 | x6 | x6 | %64
w: ||||||||||||||
w: ||||||||||||||
 x6 | x6 | x6 | x6 | x6 | x6 | (D6 | G6) | F6- | F2 x4 | x6 |] %75
w: |||||||||||
w: |||||||||||
V:3
 z6 | z6 | D2 D2 D2 | E2 C2 D2 | D2 B,2 C2 | B,2 A,2 A,2 | D2 B,2 D2 | C2 D2 C2 | C2 B,2 A,2 | %9
w: |||||||||
 F,2 =G,2 A,2 | z6 | (E2 C2) D2 | z2 z2 C2 | B,2 A,2 A,2 | D6 | (C2 A,2) C2 | (A,2 B,2) C2 | %17
w: ||||||pa- * nis|ho- * mi-|
 (F,2 =G,2 A,2) | A,2 G2 F2 | E3 E E2 | A,2 F,2 G,2 | F,3 F, F,2 | G,4 G,2 | G,4 G,2 | %24
w: num. * *|||||||
 G,2 G,2 F,2 | F,6 | z6 | z6 | z6 | z6 | D2 D2 D2 | E2 C2 D2 | D2 B,2 C2 | B,2 A,2 A,2 | %34
w: ||||||||||
 D2 B,2 D2 | C2 D2 C2 | C2 B,2 A,2 | F,2 =G,2 A,2 | z6 | z6 | A,2 A,2 G,2 | G,3 G, F,2 | z6 | z6 | %44
w: ||||||||||
 B,2 B,2 A,2 | (=G,2 A,2) A,2 | A,4 z2 | A,6 | A,2 F,4 | (G,4 A,2) | A,6 | A,6 | (A,2 F,4) | %53
w: |||||||||
 G,4 z2 | (C6 | B,4 D2) | D6 | D2 z2 z2 | D4 G,2 | A,4 G,2 | F,4 z2 | z6 | z6 | z6 | z6 | z6 | z6 | %67
w: ||||||||||||||
 z6 | z6 | z6 | (A,6 | C6) | D6- | D2 z2 z2 | z6 |] %75
w: ||||||||
V:4
 x6 | x6 | D,2 G,2 F,2 | A,2 G,2 F,2 | B,,2 E,2 A,,2 | B,,2 C,2 D,2 | B,,2 D,2 B,,2 | %7
 F,2 B,,2 F,2 | =D,2 D,2 D,2 | E,2 E,2 A,,2 | x6 | (A,2 G,2) F,2 | x4 A,,2 | B,,2 C,2 D,2 | %14
 z2 z2 B,2 | (F,2 B,,2) F,2 | =D,4 D,2 | (E,4 A,,2) | A,2 A,2 A,2 | A,3 A, A,2 | A,2 A,,2 A,,2 | %21
 A,,3 A,, A,,2 | G,,2 _C,4 | G,,2 _C,4 | G,,2 _C,2 C,2 | B,,6 | x6 | x6 | x6 | x6 | D,2 G,2 F,2 | %31
 A,2 G,2 F,2 | B,,2 E,2 A,,2 | B,,2 C,2 D,2 | B,,2 D,2 B,,2 | F,2 B,,2 F,2 | =D,2 D,2 D,2 | %37
 E,2 E,2 A,,2 | x6 | x6 | A,,2 A,,2 A,,2 | A,,3 A,, A,,2 | x6 | x6 | A,,2 A,,2 A,,2 | A,,4 G,,2 | %46
 F,,4 x2 | E,6 | D,2 A,,4 | (A,,2 E,4) | F,6 | E,6 | (D,2 A,,4) | A,,4 x2 | (F,6 | =G,6) | A,6 | %57
 A,2 x4 | B,,4 E,2 | A,,4 A,,2 | D,4 x2 | x6 | x6 | x6 | x6 | x6 | x6 | x6 | x6 | x6 | (F,6 | %71
 E,6) | D,6- | D,2 x4 | x6 |] %75
V:5
 D6- | D2 z2 z2 | [FA]2 [GB]2 [Ad]2 | c4 A2 | [FB]2 G2 A2 | G4 [DF]2 | B2 F2- [F=G]2 | [FA]6 | %8
 A2 B2 c2 | B4 [CA]2 | [FA]2 [GB]2 [Ad]2 | c4 A2 | [FB]2 G2 A2 | G4 [DF]2 | B2 F2 =G2 | [FA]6 | %16
 A2 B2 c2 | B4 [CA]2 | A,2 [B,E]2 [B,D]2 | D3 _C C2 | A,2 D2 [G,_C]2 | _C3 B, B,2 | B,4 G,2 | %23
 B,4 G,2 | B,2 A,3 B, | [F,B,]6 | B,2 _C2 E2 | =D3 B, B,2 | B,2 =C2 E2 | _D3 B, A,2 | %30
 A,2 B,2 [A,D]2 | E2 G2 [DF]2 | [FB]2 G2 A2 | G4 [DF]2 | B2 F2 =G2 | [FA]6 | A2 B2 c2 | B4 [CA]2 | %38
 A,2 [B,E]2 [A,D]2 | D3 _C C2 | A,2 D2 [G,_C]2 | [G,_C]4 [F,B,]2 | B,2 [_CF]2 [B,E]2 | E3 =D D2 | %44
 B,2 E2 [A,D]2 | [=G,D]2 B,2 C2 | D2 F,A, DF, | E,G, CG, E,G, | F,B, DF Bd | cA GE CG, | %50
 F,A, DA, F,A, | E,G, CG, E,G, | F,B, DF Bd | G[FA] [GB][Ac] [Bd][Ee] | [=Ac]6 | e2 d2 B2 | [GB]6 | %57
 [FA]2 [EG]2 [DF]2 | F4 G2 | [DF]4 [CE]2 | D4 z2 | z6 | z6 | z6 | z6 | z6 | z6 | z6 | z6 | z6 | %70
 D6 | [CE]6 | [DF]6- | [DF]6- | [DF]2 z2 z2 |] %75
V:6
 [F,A,]6- | [F,A,]2 z2 z2 | D6 | E2 C2 D2 | D2 B,2 C2 | B,2 A,4 | D2 B,2 D2 | C2 D2 C2 | %8
 C2 B,2 A,2 | F,2 =G,2 A,2 | D6 | E2 C2 D2 | B,4 C2 | B,2 A,4 | D2 B,2 D2 | C2 D2 C2 | C2 B,2 A,2 | %17
 F,2 =G,2 A,2 | z2 G,2 F,2 | E,6 | F,4 E,2 | =D,6 | _D,2 =D,2 E,2 | _D,2 =D,2 E,2 | _D,2 E,4 | %25
 =D,6 | z6 | z6 | z6 | z6 | D,6 | A,6 | D2 B,2 C2 | B,2 A,4 | D2 B,2 D2 | C2 D2 C2 | C2 B,2 A,2 | %37
 F,2 =G,2 A,2 | A,,2 G,2 F,2 | E,6 | F,4 E,2 | E,4 =D,2 | B,2 A,2 G,2 | F,6 | G,4 F,2 | %45
 _F,2 =F,2 E,2 | D,2 z2 z2 | z6 | D,4 E,F, | G,4 A,2 | z6 | z6 | D,4 E,F, | E,2 C2 B,2 | C6 | %55
 B,4 D2 | D6- | D2 z2 z2 | A,2 B,2 G,2 | A,4 G,2 | F,4 z2 | A,2 B,2 D2 | C4 A,2 | z6 | z6 | %65
 B,2 G,2 A,2 | G,4 F,2 | z6 | z6 | z6 | A,6 | [G,A,]6 | [F,A,]6- | [F,A,]6- | [F,A,]2 z2 z2 |] %75
V:7
 D,6- | D,2 x4 | D,2 G,2 F,2 | A,2 G,2 F,2 | B,,2 E,2 A,,2 | B,,2 C,2 D,2 | B,,2 D,2 B,,2 | %7
 F,2 B,,2 F,2 | =D,6 | E,4 A,,2 | D,2 G,2 F,2 | A,2 G,2 F,2 | =D,2 E,2 A,,2 | B,,2 C,2 D,2 | %14
 B,,2 D,2 B,,2 | F,2 B,,2 F,2 | =D,6 | E,4 A,,2 | A,,6- | A,,6 | A,,6 | A,,6 | G,,2 _C,4 | %23
 G,,2 _C,4 | G,,2 _C,4 | B,,6 | x6 | x6 | x6 | x6 | F,,2 G,,2 F,,2 | A,,2 E,2 F,2 | B,,2 E,2 A,,2 | %33
 B,,2 C,2 D,2 | B,,2 D,2 B,,2 | F,2 B,,2 F,2 | =D,6 | E,4 A,,2 | A,,6 | A,,2 A,,2 A,,2 | %40
 A,,2 A,,2 A,,2 | A,,2 A,,2 A,,2 | A,,2 A,,2 A,,2 | A,,2 A,,2 A,,2 | A,,2 A,,2 A,,2 | A,,4 G,,2 | %46
 F,,2 x4 | x6 | D,2 A,,4 | A,,2 E,4 | x6 | x6 | D,2 A,,4 | A,,2 A,2 G,2 | F,6 | =G,6 | A,6- | %57
 A,2 x4 | B,,4 E,,2 | A,,6 | D,4 x2 | x6 | x6 | x6 | x6 | x6 | x6 | x6 | x6 | B,2 F,2 G,2 | F,6 | %71
 E,6 | D,6- | D,6- | D,2 x4 |] %75
V:8
 x6 | x6 | x6 | A2 E2 x2 | x2 E4 | D2 E2 x2 | x6 | x6 | F6 | _D2 ED x2 | x6 | A2 E2 x2 | x2 E4 | %13
 _D2 E2 x2 | F6 | x6 | F6 | _D2 ED x2 | x6 | G,6 | A,4 x2 | F,6 | G,6 | G,6 | G,4 F,2 | x6 | x6 | %27
 x6 | x6 | x6 | x6 | C4 x2 | x2 E4 | D2 E2 x2 | F6 | x6 | F6 | _D2 ED x2 | x6 | G,6 | A,4 x2 | x6 | %42
 x6 | A,6 | B,4 x2 | x2 A,4- | A,2 x4 | x6 | x6 | x6 | x6 | x6 | x6 | x6 | x6 | E6 | x6 | x6 | %58
 D6- | x6 | x6 | x6 | x6 | x6 | x6 | x6 | x6 | x6 | x6 | x6 | x6 | x6 | x6 | x6 | x6 |] %75

